X: 1086
T: Hâl-i Dilimi Şerhedemem
C: Şekerci Cemil Bey
O: Turkey
F: http://compmusic.upf.edu/node/140
N: suzinak-zirgule--sarki--senginsemai--hal-i_dilimi--sekerci_cemil_bey
N: makam= suzinak-zirgule
N: form= sarki
N: usul= senginsemai = 6/4
M: 6/4
L: 1/16
K: C _1/4B _7/8e _7/8A ^f
Q: 1/4=72
%%MIDI tuningsystem comma53
d3/2c/dB G4 e2{f}e{f}d c3/2B/cd e3/2d/ef efed  | \
w:  ARANAĞME  | 
z=aga _bc'ag f3/2g/fg feed d4 (3ABc(3def  | 
w:   | 
g3/2f/gf e3/2d/ed c2d2 e2g2 {g}f2e2 d2c2  | \
w:   | 
{d}B3e d2c2 {d}B3A (3cBAAG G8  | 
w:   | 
d3/2c/dB G4 e2{f}e{f}d c3/2B/cd e3/2d/ef efed  | \
w:  ARANAĞME  | 
z=aga _bc'ag f3/2g/fg feed d4 (3ABc(3def  | 
w:   | 
g3/2f/gf e3/2d/ed c2d2 e2g2 {g}f2e2 d2c2  | \
w:   | 
{d}B3e d2c2 {d}B3A (3cBAAG G8  | 
w:   | 
G3/2A/GA B2c2 d2cB f2ed d2cd e2dc  | \
w:  Hâl_ *  *  *  i  *  di *  *  li *  *  mi   | 
B2c4cB B3/2c/BA BAAG G3.A .B.cd2  | 
w:  şerh_ *  *  *  e *  *  *  de *  *  *  mem  SAZ  | 
B4 d4 c4 e4 edef e2d2  | =a3/2_b/ag g3/2a/gf f3/2g/fe (3gfeed d3e dBcA  | 
w:  ki  |  kim *  *  *  se *  *  *  ye  *  *  *  ey *  *  *  *  vah   SAZ  | 
.GG2A B2c2 d2cB f2ed d3/2e/dc BAG2  | \
w:  SAZ  | 
G3/2A/GA B2c2 d2cB f2ed d2cd e2dc  | 
w:  Hâl_ *  *  *  i  *  di *  *  li *  *  mi   | 
B2c4cB B3/2c/BA BAAG G3.A .B.cd2  | \
w:  şerh_ *  *  *  e *  *  *  de *  *  *  mem  SAZ  | 
B4 d4 c4 e4 edef e2d2  | 
w:  ki  | 
=a3/2_b/ag g3/2a/gf f3/2g/fe (3gfeed d3e dBcA  | 
w:  kim *  *  *  se *  *  *  ye  *  *  *  ey *  *  *  *  vah   SAZ  | 
.GG2A B2c2 d2cB dfed .d.G.A.B .c.d.e.f  | \
w:  SAZ  | 
g3d d4 dedc B4 Bcde f2ed  | 
w:  Bir  *  ben  bi *  *  *  li rim   | 
z2e4ed d3/2e/dc c4 cBce dcBA  | G6z2 d3/2e/dc fedc B2BA (3cBAAG  | 
w:  çek *  *  ti *  *  *  ği mi   |  bir  da *  *  *  hî  *  *  *  Al  | 
G3A B2c2 d2cB f2ed .d.G.A.B .c.d.e.f  | \
w:  lah   SAZ  | 
g3d d4 dedc B4 Bcde f2ed  | 
w:  Bir  *  ben  bi *  *  *  li rim   | 
z2e4ed d3/2e/dc c4 cBce dcBA  | G6z2 d3/2e/dc fedc B2BA (3cBAAG  | 
w:  çek *  *  ti *  *  *  ği mi   |  bir  da *  *  *  hî  *  *  *  Al  | 
G4 G/A/B/c/d/e/f/g/ g3=f _2/4e3/2d/ef g3=a fed2  | \
w:  lah   SAZ  | 
=f2fg g4 =agf2 g2a2 g2a4gf  | 
w:  Vus *  *  lat  sö *  *  zü *  nü   | 
_2/4e=fgf g2fe e3d f2ed d4 ede2  | \
w:  yâd_ *  *  *  *  *  *  e *  de *  *  rim   | 
c4 _2/4e4 d4 =f4 e2gf e3/2d/c2  | 
w:  de  | 
=a3/2_b/ag g3/2a/gf =f3/2g/fe (3g^feed d4 e/g/f/e/d/c/B/A/  | 
w:  dem  *  *  *  be  *  *  *  dem  *  *  *  ey *  *  *  *  vah   SAZ  | 
.GG2A B2c2 d2cB dfed .d.G.A.B .c.d.e.f  | \
w:   | 
g3d d4 dedc B4 Bcde f2ed  | 
w:  Bir  *  ben  bi *  *  *  li rim   | 
z2e4ed d3/2e/dc c4 cBce dcBA  | G6z2 d3/2e/dc fedc B2BA (3cBAAG  | 
w:  çek *  *  ti *  *  *  ği mi   |  bir  da *  *  *  hî  *  *  *  Al  | 
G3A B2c2 d2cB f2ed .d.G.A.B .c.d.e.f  | \
w:  lah   SAZ  | 
g3d d4 dedc B4 Bcde f2ed  | 
w:  Bir  *  ben  bi *  *  *  li rim   | 
z2e4ed d3/2e/dc c4 cBce dcBA  | G6z2 d3/2e/dc fedc B2BA (3cBAAG  | 
w:  çek *  *  ti *  *  *  ği mi   |  bir  da *  *  *  hî  *  *  *  Al  | 
G4 |
w:  lah    | 


